svgs/retro_music.svg

<svg width="24" height="24" viewBox="0 0 24 24" fill="none" xmlns="http://www.w3.org/2000/svg">
<path fill-rule="evenodd" clip-rule="evenodd" d="M21.3532 10.2723L7.51393 2.28199C6.13384 1.48532 4.41091 2.48101 4.41091 4.07498V5.79546H9.59149C10.3009 5.79546 11.0033 5.93519 11.6587 6.20666C12.3141 6.47813 12.9096 6.87603 13.4112 7.37764C13.9128 7.87925 14.3107 8.47475 14.5822 9.13013C14.8536 9.78552 14.9934 10.4882 14.9934 11.1976C14.9931 12.3136 14.6472 13.4021 14.0032 14.3135C13.5893 14.8992 13.0654 15.3933 12.4647 15.7707L12.5323 15.8878L12.5305 15.8884L13.4618 17.503L13.8551 18.1876L21.3532 13.8577C22.7339 13.061 22.7339 11.069 21.3532 10.2723ZM11.9642 14.904C12.4406 14.5991 12.8565 14.2035 13.1865 13.7364C13.7113 12.9937 13.9932 12.1067 13.9934 11.1973C13.9934 10.6193 13.8795 10.0469 13.6583 9.51282C13.4371 8.97876 13.1128 8.4935 12.7041 8.08474C12.2953 7.67599 11.8101 7.35175 11.276 7.13054C10.742 6.90932 10.1696 6.79546 9.59149 6.79546H7.28178L11.9642 14.904ZM6.12702 6.79546L11.0639 15.3446L11.0627 15.345H4.41091V6.79546H6.12702ZM4.41091 16.345H10.7259C10.9508 16.345 11.1753 16.3258 11.3969 16.2875V16.2875C11.4548 16.267 11.5122 16.2455 11.5692 16.2231L12.5947 18.001L12.9891 18.6877L7.51641 21.848C6.13632 22.6447 4.41091 21.649 4.41091 20.055V16.345Z" fill="#FFF1C0"/>
</svg>

<svg xmlns="http://www.w3.org/2000/svg" width="24" height="24" fill="none" viewBox="0 0 24 24"><path fill="#FFF1C0" fill-rule="evenodd" d="m21.353 10.272-13.84-7.99c-1.38-.797-3.102.199-3.102 1.793v1.72h5.18a5.402 5.402 0 0 1 2.874 9.976l.067.117h-.002l.932 1.615.393.685 7.498-4.33c1.38-.797 1.38-2.789 0-3.586m-9.389 4.632a4.402 4.402 0 0 0-2.373-8.109h-2.31l4.683 8.109M6.127 6.795l4.937 8.55H4.41v-8.55h1.716m-1.716 9.55h6.315c.225 0 .45-.02.67-.057.059-.021.116-.043.173-.065l1.026 1.778.394.687-5.473 3.16c-1.38.797-3.105-.199-3.105-1.793v-3.71" clip-rule="evenodd"/></svg>
